logos/fuchsia.svg

<?xml version="1.0" encoding="UTF-8"?>
<svg width="256px" height="229px" viewBox="0 0 256 229" version="1.1" xmlns="http://www.w3.org/2000/svg" xmlns:xlink="http://www.w3.org/1999/xlink" preserveAspectRatio="xMidYMid">
    <g>
        <path d="M106.639312,0.245431053 C169.554944,-3.84664258 223.77492,43.7237134 228.378503,106.127836 C228.378503,110.731419 228.378503,115.335002 228.378503,119.938585 C228.378503,121.473112 227.355485,122.496131 225.820957,122.496131 C225.309448,122.496131 225.309448,122.496131 225.309448,122.496131 C224.286429,122.496131 223.77492,121.984622 223.263411,121.473112 C222.751902,120.961603 222.751902,119.938585 222.751902,119.427076 C223.263411,115.335002 223.263411,110.731419 222.751902,106.639346 C218.659828,46.7927686 166.997398,1.77995867 107.150822,5.8720323 C47.3042447,9.96410593 2.2914347,61.6265356 6.38350833,121.473112 C10.475582,181.319689 62.1380116,226.332499 120.96157,222.240426 C132.726282,221.217407 143.467975,218.659861 154.209668,214.567788 C154.721178,214.567788 154.721178,214.567788 155.232687,214.567788 C156.767214,214.056278 157.790233,215.079297 158.301742,216.102315 C158.813251,217.636843 158.301742,219.17137 156.767214,219.68288 C145.514012,224.286463 133.7493,226.844009 121.984588,227.867027 C59.0689564,232.47061 4.33747152,184.900254 0.245397884,121.984622 C-3.84667575,59.0689895 43.7236802,4.84901389 106.639312,0.245431053 Z M237.074159,139.887444 C248.838871,149.094609 256,162.905358 256,178.762143 C256,206.38364 231.959067,228.890045 204.84908,228.890045 C177.739092,228.890045 155.232687,206.89515 155.232687,179.273653 C155.232687,168.531959 158.813251,158.813284 164.439852,150.629137 C183.877202,122.496131 177.227583,83.6214313 149.094576,63.6725724 C120.96157,44.2352226 82.0868706,50.8848423 62.1380116,79.0178485 C42.7006618,107.150855 49.3502815,146.025554 77.4832877,165.974413 C100.501202,181.831199 130.168736,180.296671 151.140613,164.439886 C148.583067,174.15856 148.583067,184.388745 151.140613,193.59591 C124.030625,206.89515 90.2710178,205.360622 63.6725392,186.434781 C23.7748213,158.301775 14.5676556,104.0818 42.1891526,64.6955908 C70.3221589,24.7978729 124.542135,15.5907072 163.928343,43.2122042 C203.826061,71.3452104 213.033227,125.565186 185.41173,164.951395 C182.342675,169.043468 180.808147,174.15856 180.808147,179.273653 C180.808147,193.084401 192.061349,204.337604 205.872098,204.337604 C219.682846,204.337604 230.936049,193.084401 230.936049,179.273653 C230.936049,171.601014 227.355485,164.439886 221.728883,159.836303 C217.63681,156.255738 212.521718,154.209702 206.383607,154.209702 C204.33757,154.209702 202.291534,154.209702 200.245497,154.721211 C203.826061,146.537063 206.383607,138.352916 207.918135,129.145751 C218.659828,129.145751 228.890012,133.237824 237.074159,139.887444 Z" fill="#ED1D7F" fill-rule="nonzero"></path>
    </g>
</svg>

<svg preserveAspectRatio="xMidYMid" viewBox="0 0 256 229" xmlns="http://www.w3.org/2000/svg">
  <path fill="#ED1D7F" d="M106.64.245c62.915-4.092 117.135 43.479 121.739 105.883v13.81c0 1.535-1.024 2.558-2.558 2.558h-.512c-1.023 0-1.534-.511-2.046-1.023-.511-.511-.511-1.534-.511-2.046.511-4.092.511-8.696 0-12.788C218.66 46.793 166.997 1.78 107.15 5.872 47.304 9.964 2.29 61.627 6.384 121.473c4.092 59.847 55.754 104.86 114.578 100.767 11.764-1.023 22.506-3.58 33.248-7.672h1.023c1.534-.512 2.557.511 3.069 1.534.511 1.535 0 3.07-1.535 3.58-11.253 4.604-23.018 7.162-34.782 8.185C59.069 232.471 4.337 184.9.245 121.985-3.847 59.069 43.724 4.849 106.64.245Zm130.434 139.642C248.84 149.095 256 162.905 256 178.762c0 27.622-24.04 50.128-51.15 50.128s-49.617-21.995-49.617-49.616c0-10.742 3.58-20.46 9.207-28.645 19.437-28.133 12.788-67.008-15.345-86.956-28.133-19.438-67.008-12.788-86.957 15.345-19.437 28.133-12.788 67.008 15.345 86.956 23.018 15.857 52.686 14.323 73.658-1.534-2.558 9.719-2.558 19.949 0 29.156-27.11 13.3-60.87 11.765-87.468-7.161-39.898-28.133-49.105-82.353-21.484-121.74 28.133-39.897 82.353-49.104 121.74-21.483 39.897 28.133 49.104 82.353 21.483 121.74-3.07 4.091-4.604 9.207-4.604 14.322 0 13.81 11.253 25.064 25.064 25.064 13.81 0 25.064-11.254 25.064-25.064 0-7.673-3.58-14.834-9.207-19.438-4.092-3.58-9.207-5.626-15.345-5.626-2.046 0-4.092 0-6.139.511 3.581-8.184 6.139-16.368 7.673-25.575 10.742 0 20.972 4.092 29.156 10.741Z"/>
</svg>
